static/logos/webflow-glyph-color.svg

<svg width="50" height="50" viewBox="0 0 50 50" fill="none" xmlns="http://www.w3.org/2000/svg">
<g clip-path="url(#clip0_1_437)">
<path d="M42.8571 0H7.14286C3.19797 0 0 3.19797 0 7.14286V42.8571C0 46.802 3.19797 50 7.14286 50H42.8571C46.802 50 50 46.802 50 42.8571V7.14286C50 3.19797 46.802 0 42.8571 0Z" fill="#3A48FF"/>
<path d="M32.2333 20.6785C32.2333 20.6785 29.8225 28.25 29.6261 28.875C29.5547 28.2321 27.7868 14.6428 27.7868 14.6428C23.6797 14.6428 21.4833 17.5714 20.3225 20.6607C20.3225 20.6607 17.394 28.25 17.144 28.8928C17.1261 28.3035 16.6975 20.75 16.6975 20.75C16.4475 16.9643 12.9833 14.6607 10.1797 14.6607L13.5725 35.25C17.8761 35.2321 20.1975 32.3214 21.4118 29.2321C21.4118 29.2321 24.0011 22.5357 24.1083 22.2321C24.1261 22.5178 25.9654 35.25 25.9654 35.25C30.2868 35.25 32.6083 32.5178 33.8583 29.5357L39.9118 14.6607C35.644 14.6607 33.394 17.5714 32.2333 20.6785Z" fill="white"/>
</g>
<defs>
<clipPath id="clip0_1_437">
<rect width="50" height="50" fill="white"/>
</clipPath>
</defs>
</svg>

<svg xmlns="http://www.w3.org/2000/svg" width="64" height="64" fill="none" viewBox="0 0 50 50"><g clip-path="url(#a)"><path fill="#3A48FF" d="M42.857 0H7.143A7.143 7.143 0 0 0 0 7.143v35.714A7.143 7.143 0 0 0 7.143 50h35.714A7.143 7.143 0 0 0 50 42.857V7.143A7.143 7.143 0 0 0 42.857 0Z"/><path fill="#fff" d="M32.233 20.678s-2.41 7.572-2.607 8.197c-.071-.643-1.84-14.232-1.84-14.232-4.106 0-6.303 2.928-7.463 6.018 0 0-2.929 7.589-3.179 8.232-.018-.59-.446-8.143-.446-8.143-.25-3.786-3.715-6.09-6.518-6.09l3.393 20.59c4.303-.018 6.625-2.929 7.839-6.018 0 0 2.59-6.696 2.696-7 .018.286 1.857 13.018 1.857 13.018 4.322 0 6.643-2.732 7.893-5.714l6.054-14.875c-4.268 0-6.518 2.91-7.679 6.018Z"/></g><defs><clipPath id="a"><path fill="#fff" d="M0 0h50v50H0z"/></clipPath></defs></svg>
